X: 6980
T: Chicago, The
R: jig
M: 6/8
K: Dmixolydian
"D"F2D DED|F2D DED|F2D DED|"C"C2G, ~G,3|
"G/B"F2D DED|F2D DED|"Am"~B3 cA"C""(D)"F|1 AGF GA"D"G:|2 AGF "C"G2A||
|:"G"~B2G B/c/d"Bm"e|dcB ABc|"Am"B2G GAG|"D"AFD AGF|
"G"~B2G B/c/d"Bm"e|dcB ABc|"Am"~B3 "D"cAF|1 "Am"AG"C"F G2A:|2 "(D)"AG"Am"F GAG||

